teeny/solid/user-square.svg

<svg width="15" height="15" viewBox="0 0 15 15" fill="none" xmlns="http://www.w3.org/2000/svg">
<path fill-rule="evenodd" clip-rule="evenodd" d="M1.5 0C0.671573 0 0 0.671573 0 1.5V13.5C0 14.3284 0.671573 15 1.5 15H13.5C14.3284 15 15 14.3284 15 13.5V1.5C15 0.671573 14.3284 0 13.5 0H1.5ZM6.5 9C4.56713 9 3 10.5663 3 12.4994V13.5C3 13.7761 3.22386 14 3.5 14H11.5C11.7761 14 12 13.7761 12 13.5V12.4994C12 10.5663 10.4329 9 8.5 9H6.5ZM5 5.5C5 4.11929 6.11929 3 7.5 3C8.88071 3 10 4.11929 10 5.5C10 6.88071 8.88071 8 7.5 8C6.11929 8 5 6.88071 5 5.5Z" fill="black"/>
</svg>

<svg viewBox="0 0 15 15" xmlns="http://www.w3.org/2000/svg"><path fill-rule="evenodd" d="M1.5 0C.67 0 0 .67 0 1.5v12c0 .82.67 1.5 1.5 1.5h12c.82 0 1.5-.68 1.5-1.5v-12c0-.83-.68-1.5-1.5-1.5h-12Zm5 9C4.56 9 3 10.56 3 12.49v1c0 .27.22.5.5.5h8c.27 0 .5-.23.5-.5v-1.01c0-1.94-1.57-3.5-3.5-3.5h-2ZM5 5.5C5 4.11 6.11 3 7.5 3 8.88 3 10 4.11 10 5.5 10 6.88 8.88 8 7.5 8 6.11 8 5 6.88 5 5.5Z"/></svg>
